!!!!SEGMENT: pl-kk--kk-i-636--001-007_anonim--in-corona-domini-responsorium-4tum.krn
!!!cenid: 18xx:4529
!!!COM: Anonim
!!!COM-rismID: pe30004985
!!!CDT:
!!!CNT:
!!!OPR: In Corona Domini
!!!OTL: Responsorium 4tum
!!!OMV: 007
!!!PDT:
!!!AGN: Sacred
!!!YEC: Copyright 2022 Narodowy Instytut Fryderyka Chopina (https://polishscores.org)
!!!YEM: License CC-BY-4.0 (https://creativecommons.org/licenses/by/4.0)
!!!SMS-siglum: PL-Kk
!!!SMS-shelfmark: Kk.I.636
!!!SMS-variant:
!!!SMS-altvar:
!!!SMS-shelfwork: 001-007 M
!!!NIFC-rismSourceID: 1001216440
!!!NIFC-rismChildID: 1001216909
!!!NIFC-islandoraID: pl-kk:40786
!!!URL-pdf-islandora: https://repozytorium.nifc.pl/islandora/object/pl-kk%3A40786/datastream/PDF/view
!!!URL-scan: https://polish.musicsources.pl/pl/lokalizacje/galeria/rekopisy/7271/1 @EN{Scan on Polish Music Sources Website} @PL{Skany w portalu Dziedzictwo Muzyki Polskiej w otwartym dostępie}
!!!IIIF:
!!!ONB-nifc: UWAGA: Lamentacje i Responsoria In Corona Domini na skanach: S – 1-7, A – 24-30, T – 45-52, B – 70-78. Każda Lamentacja i Responsorium to oddzielne pliki.
!!!AIN: 1 alto 1 bass 1 soprn 1 tenor
!!!key:
**kern	**text	**kern	**text	**kern	**text	**kern	**text
*part4	*part4	*part3	*part3	*part2	*part2	*part1	*part1
*staff4	*staff4	*staff3	*staff3	*staff2	*staff2	*staff1	*staff1
*I"Basso.	*	*I"Tenore.	*	*I"Alto.	*	*I"Soprano.	*
*I'B	*	*I'T	*	*I'A	*	*I'S	*
*Ibass	*	*Itenor	*	*Ialto	*	*Isoprn	*
*ICvox	*	*ICvox	*	*ICvox	*	*ICvox	*
*clefF4	*	*clefC4	*	*clefC3	*	*clefC1	*
*k[b-]	*	*k[b-]	*	*k[b-]	*	*k[b-]	*
*F:	*	*F:	*	*F:	*	*F:	*
*M2/2	*	*M2/2	*	*M2/2	*	*M2/2	*
*met(c|)	*	*met(c|)	*	*met(c|)	*	*met(c|)	*
=1	=1	=1	=1	=1	=1	=1	=1
!LO:TX:a:t=2.	!	!LO:TX:a:t=1.	!	!	!	!	!
0r	.	1r	.	1f	A-	1f	A-
=2	=2	=2	=2	=2	=2	=2	=2
*	*	*	*	*2\right	*	*	*
.	.	1c	A-	(2f\	-mi-	1g	-mi-
.	.	.	.	2e\)	.	.	.
=3	=3	=3	=3	=3	=3	=3	=3
*	*	*	*	*	*	*2\right	*
4F\	A-	4c\	-mi-	2f\	-cus	2a\	-cus
8F\	-mi-	4c\	-cus	.	.	.	.
8F\	-cus	.	.	.	.	.	.
4F\	me-	4c\	me-	4f\	me-	4a\	me-
4E-X\	-us	4c\	-us	4f\	-us	4a\	-us
!LO:LB:g=original	!	!LO:LB:g=original	!	!LO:LB:g=original	!	!LO:LB:g=original	!
=4	=4	=4	=4	=4	=4	=4	=4
4D/	os-	4F/	o-	4f\	os-	4b-\	os-
4AA/	-cu-	4F/	-scu-	4f\	-cu-	4cc\	-cu-
*	*	*2\right	*	*	*	*	*
2BB-/	-li	2B-\	-li	2f\	-lo	2dd\	-li
=5	=5	=5	=5	=5	=5	=5	=5
*2\right	*	*	*	*	*	*	*
2F\	me	2A\	me	2f\	me	2cc\	me
4r	.	4r	.	4r	.	4r	.
4F\	tra-	[4c\	tra-	4a\	tra-	4cc\	tra-
=6	=6	=6	=6	=6	=6	=6	=6
2F\	-di-	4c\]	.	2a\	-di-	2cc\	-di-
.	.	4c\	-di-	.	.	.	.
2E\	-dit	2c\	-dit	2g\	-dit	2cc\	-dit
=7	=7	=7	=7	=7	=7	=7	=7
2D/	si-	4c\	si-	2g\	si-	2ff\	si-
.	.	4Bn\	.	.	.	.	.
2C/	-gno,	2c\	-gno,	2g\	-gno,	2ee\	-gno,
=8	=8	=8	=8	=8	=8	=8	=8
!LO:TX:a:t=1	!	!LO:TX:a:t=1	!	!	!	!	!
1r	.	1r	.	4r	.	4r	.
.	.	.	.	4f\	tra-	4dd\	tra-
.	.	.	.	4f\	-di-	4dd\	-di-
.	.	.	.	4e\	-dit	4cc\	-dit
!LO:LB:g=original	!	!LO:LB:g=original	!	!LO:LB:g=original	!	!LO:LB:g=original	!
=9	=9	=9	=9	=9	=9	=9	=9
4r	.	4r	.	2d\	si-	2bn\	si-
2G\	si-	4G/	si-	.	.	.	.
.	.	2Bn\	-gno,	2d\	-gno	2g\	-gno
4F\	-gno	.	.	.	.	.	.
=10	=10	=10	=10	=10	=10	=10	=10
2E\	tra-	[1c	tra-	4r	.	4r	.
.	.	.	.	4e\	tra-	4cc\	tra-
2C\	.	.	.	4e\	-di-	4cc\	-di-
.	.	.	.	4e\	-dit	4cc\	-dit
=11	=11	=11	=11	=11	=11	=11	=11
4F\	.	4c\]	.	2.a\	si-	1cc	si-
2F\	-di-	2d\	-di-	.	.	.	.
4F\	-dit	4d\	-dit	4a\	-gno	.	.
=12	=12	=12	=12	=12	=12	=12	=12
2G\	si-	1d	si-	2.g\	si-	2cc\	.
2GG/	.	.	.	.	.	2bn\	.
.	.	.	.	4f\	.	.	.
=13	=13	=13	=13	=13	=13	=13	=13
2C/	-gno,	2c\	-gno:	2e\	-gno,	2cc\	-gno.
2r	.	2r	.	2r	.	2r	.
!LO:LB:g=original	!	!	!	!LO:LB:g=original	!	!LO:LB:g=original	!
=14	=14	=14	=14	=14	=14	=14	=14
!	!	!	!	!	!	!LO:TX:a:t=3	!
2r	.	2e\	quem	2g\	que	0r	.
4c\	o-	4e\	os-	4g\	os-	.	.
4c\	-scu-	4e\	-cu-	4g\	-cu-	.	.
!	!	!LO:LB:g=original	!	!	!	!	!
=15	=15	=15	=15	=15	=15	=15	=15
2B-\	-la-	2e\	-la-	2g\	-la-	.	.
2A\	-tus	2f\	-tus	2a\	-tus	.	.
=16	=16	=16	=16	=16	=16	=16	=16
2G\	fu-	2.f\	fu-	2b-\	fu-	1r	.
2G\	-e-	.	.	2b-\	-e-	.	.
.	.	4e\	-e-	.	.	.	.
=17	=17	=17	=17	=17	=17	=17	=17
2F\	-ro,	2f\	-ro	2a\	-ro,	[1ff	ip-
2r	.	2r	.	2r	.	.	.
=18	=18	=18	=18	=18	=18	=18	=18
2r	.	4r	.	2r	.	2ff\]	.
.	.	2B-\	i-	.	.	.	.
4G\	i-	.	.	4b-\	i-	(4ee-X\	-se
4G\	-pse	4B-\	-pse	4b-\	-pse	4dd\)	.
!LO:LB:g=original	!	!	!	!LO:LB:g=original	!	!	!
=19	=19	=19	=19	=19	=19	=19	=19
2A\	est,	2c\	est,	2f\	est	(4ee-X\	est
.	.	.	.	.	.	4cc\)	.
2A\	te-	2c\	te-	2f\	te-	(4ff\	te-
.	.	.	.	.	.	4ee-\)	.
=20	=20	=20	=20	=20	=20	=20	=20
4B-\	-ne-	2.B-\	-ne-	2f\	-ne-	2dd\	-ne-
4B-\	-te,	.	.	.	.	.	.
2r	.	.	.	2f\	-te	2dd\	-te
.	.	4B-\	-te	.	.	.	.
!	!	!LO:LB:g=original	!	!	!	!LO:LB:g=original	!
=21	=21	=21	=21	=21	=21	=21	=21
4r	.	2B-\	e-	1f	e-	2.dd\	e-
2B-\	e-	.	.	.	.	.	.
.	.	4B-\	.	.	.	.	.
4A\	.	4c\	.	.	.	4cc\	.
=22	=22	=22	=22	=22	=22	=22	=22
2G\	.	1c	-um,	4f\	.	2b-\	.
.	.	.	.	4e\	.	.	.
2F\	-um,	.	.	2f\	-um,	2a\	-um
=23	=23	=23	=23	=23	=23	=23	=23
2F\	te-	2c\	te-	2f\	te-	2a\	te-
4F\	-ne-	4A\	-ne-	4f\	-ne-	4dd\	-ne-
4F\	-te	4A\	-te	4e\	-te	4cc\	-te
!LO:LB:g=original	!	!	!	!	!	!	!
=24	=24	=24	=24	=24	=24	=24	=24
2G\	e-	1G	e-	2d\	e-	2cc\	e-
2GG/	.	.	.	4g\	.	2bn\	.
.	.	.	.	4f\	.	.	.
!	!	!	!	!LO:LB:g=original	!	!	!
=25	=25	=25	=25	=25	=25	=25	=25
1C	-um,	1G	-um,	1e	-um,	1cc	-um,
!	!	!	!	!	!	!LO:LB:g=original	!
=26	=26	=26	=26	=26	=26	=26	=26
!LO:TX:a:t=2.	!	!LO:TX:a:t=2.	!	!	!	!	!
0r	.	0r	.	2r	.	2r	.
.	.	.	.	2f\	hoc	2f/	hoc
=27	=27	=27	=27	=27	=27	=27	=27
.	.	.	.	4e\	ma-	4g\	ma-
.	.	.	.	4f\	-lum	4a\	-lum
.	.	.	.	4g\	fe-	(4b-\	fe-
.	.	.	.	4a\	.	4cc\)	.
=28	=28	=28	=28	=28	=28	=28	=28
4B-\	qui	4d\	qui	2b-\	-cit,	2dd\	-cit,
4A\	per	4c\	per	.	.	.	.
!	!	!	!	!	!	!LO:TX:a:t=Volti Subitto.	!
4G\	o-	4B-\	os-	2r	.	2r	.
4F\	-scu-	4A\	-cu-	.	.	.	.
!	!	!LO:LB:g=original	!	!	!	!LO:PB:g=original	!
=29	=29	=29	=29	=29	=29	=29	=29
2E\	-lum,	2G/	-lum,	4r	.	4r	.
.	.	.	.	4b-\	si-	4dd\	si-
2r	.	2r	.	4cc\	.	4ee\	.
.	.	.	.	4b-\	.	4dd\	.
!LO:PB:g=original	!	!	!	!LO:LB:g=original	!	!	!
=30	=30	=30	=30	=30	=30	=30	=30
4A\	per	4c\	per	2a\	-gnum,	2cc\	-gnum,
4G\	.	4B-\	.	.	.	.	.
4F\	os-	4A\	os-	2r	.	2r	.
4E\	-cu-	4G\	-cu-	.	.	.	.
=31	=31	=31	=31	=31	=31	=31	=31
2D\	-lum	2F/	-lum	4r	.	4r	.
.	.	.	.	4a\	si-	4cc\	si-
2r	.	2r	.	4b-\	.	4dd\	.
.	.	.	.	4a\	.	4cc\	.
=32	=32	=32	=32	=32	=32	=32	=32
4G\	per	4B-/	per	2g\	-gnum	2b-\	-gnum,
4F\	.	4A/	.	.	.	.	.
!	!	!	!	!LO:TX:a:t=Volti Subitto.	!	!	!
4E\	os-	4G/	os-	2r	.	2r	.
4D\	-cu-	4F/	-cu-	.	.	.	.
!	!	!	!	!LO:PB:g=original	!	!	!
=33	=33	=33	=33	=33	=33	=33	=33
2C/	-lum,	2E/	-lum	4r	.	4r	.
.	.	.	.	4g\	ad	4b-\	ad
2r	.	2r	.	4a\	.	4cc\	.
.	.	.	.	4g\	im-	4b-\	im-
!	!	!LO:LB:g=original	!	!	!	!LO:LB:g=original	!
=34	=34	=34	=34	=34	=34	=34	=34
!LO:TX:a:t=2.	!	!	!	!	!	!	!
0r	.	4r	.	2f\	-ple-	2a\	-ple-
.	.	2d\	ad	.	.	.	.
.	.	.	.	2f\	-vit	2a\	-vit
.	.	4c\	im-	.	.	.	.
=35	=35	=35	=35	=35	=35	=35	=35
.	.	2B-\	-ple-	2f\	im-	2g\	im-
.	.	2c\	.	2e\	-ple-	2g\	-ple-
!LO:LB:g=original	!	!	!	!	!	!	!
=36	=36	=36	=36	=36	=36	=36	=36
4r	.	4f\	-vit	4f\	-vit	4a\	-vit
2d\	ho-	2f\	ho-	2a\	ho-	2ff\	ho-
4c\	-mi-	4f\	-mi-	4a\	-mi-	4ff\	-mi-
=37	=37	=37	=37	=37	=37	=37	=37
2B-\	-ci-	2d\	-ci-	2g\	-ci-	2ff\	-ci-
2c\	-di-	2c\	-di-	2g\	-di-	2ee\	-di-
!	!	!	!	!LO:LB:g=original	!	!	!
=38	=38	=38	=38	=38	=38	=38	=38
2F\	-um.	2c\	-um.	2a\	-um.	2.ff\	-um
2r	.	2r	.	2r	.	.	.
.	.	.	.	.	.	4r	.
!	!	!LO:LB:g=original	!	!	!	!LO:LB:g=original	!
=39||	=39||	=39||	=39||	=39||	=39||	=39||	=39||
*k[b-e-]	*	*k[b-e-]	*	*k[b-e-]	*	*k[b-e-]	*
*M3/2	*	*M3/2	*	*M3/2	*	*M3/2	*
2BB-/	In-	2d\	In-	2f\	In-	2b-\	In-
2BB-/	-fe-	2d\	-fe-	2f\	-fe-	2b-\	-fe-
2D/	-lix	2d\	-lix	2f\	-lix	2b-\	-lix
!LO:LB:g=original	!	!	!	!	!	!	!
=40	=40	=40	=40	=40	=40	=40	=40
1F	pre-	2d\	pre-	1f	pre-	2b-\	pre-
.	.	2d\	-ter	.	.	2a\	.
2F\	-ter-	2e-\	.	2f\	-ter	2cc\	-ter
=41	=41	=41	=41	=41	=41	=41	=41
1B-	-mis	2e-\	mi-	1f	mi-	2cc\	mi-
.	.	2d\	.	.	.	2b-\	.
2B-\	it	2c\	-sit	2f\	-sit	2dd\	-sit
=42	=42	=42	=42	=42	=42	=42	=42
2A\	pre-	2.B-\	pre-	2f\	pre-	2dd\	pre-
2A\	-ti-	.	.	2g\	-ti-	2cc\	-ti-
.	.	4A\	-ti-	.	.	.	.
2F\	-um	2c\	-um	2g\	-um	2ee-\	-um
!	!	!LO:PB:g=original	!	!LO:LB:g=original	!	!LO:LB:g=original	!
=43	=43	=43	=43	=43	=43	=43	=43
2B-\	san-	2B-\	san-	2f\	san-	2dd\	san-
2E-\	.	2c\	-gui-	2f\	-gui-	2cc\	-gui-
2E-\	-gui-	2d\	-nis	2f\	-nis,	2b-\	-nis,
=44	=44	=44	=44	=44	=44	=44	=44
2F\	-nis,	2c\	pre-	1f	pre-	2a\	pre-
2r	.	2f\	.	.	.	2f\	.
2r	.	2e-\	-ti-	2f\	-ti-	2a\	-ti-
!LO:LB:g=original	!	!	!	!	!	!	!
=45	=45	=45	=45	=45	=45	=45	=45
2r	.	1d	-um	1f	-um	1b-	-um
2B-\	san-	.	.	.	.	.	.
2A-X\	.	[2B-\	san-	2f\	san-	2dd\	san-
=46	=46	=46	=46	=46	=46	=46	=46
2G\	.	1B-]	.	1g	.	1ee-	.
1E-	.	.	.	.	.	.	.
.	.	2B-\	-gui-	2g\	-gui-	2b-\	-gui-
=47	=47	=47	=47	=47	=47	=47	=47
4E-\	.	1B-	-nis,	(2f\	-nis,	(2a-X\	-nis
4D\	-gui-	.	.	.	.	.	.
2E-\	-nis,	.	.	2e-\)	.	2g\)	.
2r	.	2r	.	2r	.	2r	.
!	!	!	!	!	!	!LO:LB:g=original	!
=48	=48	=48	=48	=48	=48	=48	=48
!LO:TX:a:t=3	!	!	!	!	!	!	!
0.r	.	1e-	et	1e-	et	1g	et
.	.	2e-\	in	2e-\	in	2g\	in
!	!	!LO:LB:g=original	!	!LO:LB:g=original	!	!	!
=49	=49	=49	=49	=49	=49	=49	=49
.	.	1e-	fi-	1f	fi-	1an	fi-
.	.	2d\	-ne	2f\	-ne	2b-\	-ne
=50	=50	=50	=50	=50	=50	=50	=50
1.r	.	2An\	na-	2f\	la-	2cc\	la-
.	.	2A\	-que-	2f\	-que-	2cc\	-que-
.	.	2B-\	-o	2f\	-o	2dd\	-o
=51	=51	=51	=51	=51	=51	=51	=51
!	!	!LO:TX:a:t=1	!	!	!	!	!
2B-\	la	1.r	.	1.b-	se	1.dd	se
2G\	.	.	.	.	.	.	.
2F\	.	.	.	.	.	.	.
!LO:LB:g=original	!	!	!	!	!	!	!
=52	=52	=52	=52	=52	=52	=52	=52
1En	que-	2r	.	2b-\	la-	2dd\	la-
.	.	2c\	la-	2a\	-que-	2cc\	-que-
2E\	-o	4c\	-que-	2g\	-o	2b-\	-o
.	.	4c\	-o	.	.	.	.
!	!	!	!	!	!	!LO:LB:g=original	!
=53	=53	=53	=53	=53	=53	=53	=53
1.F	se	1.c	se	1f	se	1a	se
.	.	.	.	2g\	.	2cc\	.
=54	=54	=54	=54	=54	=54	=54	=54
1D	sus-	1G	sus-	1f	sus-	1cc	sus-
2D\	-pen-	2G/	-pen-	4g\	-pen-	2bn\	-pen-
.	.	.	.	4f\	.	.	.
!	!	!LO:LB:g=original	!	!LO:LB:g=original	!	!	!
=55	=55	=55	=55	=55	=55	=55	=55
1.C	-dit:	1.G	-dit	1.en	-dit.	1.cc	-dit.
=56||	=56||	=56||	=56||	=56||	=56||	=56||	=56||
*k[b-]	*	*k[b-]	*	*k[b-]	*	*k[b-]	*
*M2/2	*	*M2/2	*	*M2/2	*	*M2/2	*
*met(c|)	*	*met(c|)	*	*met(c|)	*	*met(c|)	*
!LO:TX:a:t=2.	!	!LO:TX:a:t=2.	!	!	!	!	!
0r	.	0r	.	2r	.	2r	.
.	.	.	.	4f\	Bo-	4f/	Bo-
.	.	.	.	4f\	-num	4f/	-num
=57	=57	=57	=57	=57	=57	=57	=57
.	.	.	.	4e\	e-	4g\	e-
.	.	.	.	4f\	-rat	4a\	-rat
.	.	.	.	4g\	e-	4b-\	e-
.	.	.	.	4a\	.	4cc\	.
=58	=58	=58	=58	=58	=58	=58	=58
4B-\	na-	4d\	Na-	2b-\	-i,	2dd\	-i,
4A\	-tus	4c\	-tus	.	.	.	.
4G\	non	4B-\	non	2r	.	2r	.
4F\	fu-	4A\	fu-	.	.	.	.
!LO:LB:g=original	!	!	!	!	!	!LO:LB:g=original	!
=59	=59	=59	=59	=59	=59	=59	=59
4En\	-is-	4G/	-is-	4r	.	4r	.
4E\	-set,	4G/	-set,	4b-\	bo-	4dd\	bo-
2r	.	2r	.	4cc\	.	4een\	.
.	.	.	.	4b-\	.	4dd\	.
!	!	!	!	!LO:LB:g=original	!	!	!
=60	=60	=60	=60	=60	=60	=60	=60
4A\	non	4c\	non	2a\	-num	2cc\	-num
4G\	fu-	4B-\	fu-	.	.	.	.
4F\	-is-	4A\	-is-	2r	.	2r	.
4E\	.	4G\	.	.	.	.	.
!	!	!LO:LB:g=original	!	!	!	!	!
=61	=61	=61	=61	=61	=61	=61	=61
2D\	-set	2F/	-set	4r	.	4r	.
.	.	.	.	4a\	e-	4cc\	e-
2r	.	2r	.	4b-\	-rat	4dd\	.
.	.	.	.	4a\	e-	4cc\	-rat
=62	=62	=62	=62	=62	=62	=62	=62
4G\	non	4B-/	non	2g\	-i,	4b-\	e-
4F\	fu-	4A/	fu-	.	.	4b-\	-i
4E\	-is-	4G/	-is-	2r	.	2r	.
4D\	.	4F/	.	.	.	.	.
=63	=63	=63	=63	=63	=63	=63	=63
2C/	-set	2E/	-set,	4r	.	4r	.
.	.	.	.	4g\	si	4b-\	si
2r	.	2r	.	4a\	na-	4cc\	na-
.	.	.	.	4g\	-tus	4b-\	-tus
!LO:LB:g=original	!	!	!	!	!	!LO:LB:g=original	!
=64	=64	=64	=64	=64	=64	=64	=64
!LO:TX:a:t=2.	!	!	!	!	!	!	!
0r	.	4r	.	2f\	non	2a\	non
.	.	2d\	non	.	.	.	.
.	.	.	.	2f\	fu-	2a\	fu-
.	.	4c\	fu-	.	.	.	.
=65	=65	=65	=65	=65	=65	=65	=65
.	.	2B-\	-is-	2f\	-is-	2g\	-is-
.	.	2c\	.	2e\	-set	2g\	-set
!	!	!	!	!LO:LB:g=original	!	!	!
=66	=66	=66	=66	=66	=66	=66	=66
4r	.	4f\	-set	4f\	ho-	4a\	ho-
2d\	ho-	2f\	ho-	2a\	.	2ff\	.
4c\	-ni	4f\	-mo	4a\	-mo	4ff\	-mo
!	!	!LO:LB:g=original	!	!	!	!	!
=67	=67	=67	=67	=67	=67	=67	=67
2B-\	il-	(2d\	il-	1g	il-	2ff\	il-
2c\	.	2c\)	.	.	.	2ff\	.
=68	=68	=68	=68	=68	=68	=68	=68
1F	-le.	1c	-le.	1a	-le.	2ff\	-le.
.	.	.	.	.	.	2r	.
==	==	==	==	==	==	==	==
*-	*-	*-	*-	*-	*-	*-	*-
!!!system-decoration: [(s1,s2,s3,s4)]
!!!ENC: Anastazja Marusiak
!!!END: 2023-11-14
!!!ENC: Leszek Kubiak
!!!END: 2024-10-08
